!!!Genre:	Skotshne
!!!Mode:	Minor
!!!Listening/dance:	listening
!!!:	*G:frey
!!!One_Mode:	no
**kern
*I"P1
*clefG2
*k[b-e-]
*G:frey
=10||
*>B
(8qa-X/
[4gt)
(16gLL]
16f
16en
16fJJ)
=11
(8qa-X/
[4gt)
(16gLL]
16f
16en
16fJJ)
=12
((8qa-X/
16gLL)
16f
16en
16fJJ)
(16gLL
16f
16e
16fJJ)
=13
4.g
8g
=14
16gLL
(8qbn/
16a-X)
16g
16fJJ
(8qa-/
4g)
=15
8gL
8bnJ
(8qdd/
8ccL)
8bJ
=16
16gLL
(8qbn/
16a-X)
16g
16fJJ
(8qa-/
4g)
=17
8r
8bnL
8qdd/
8cc
8bJ
*>eM
*-
